X:1
T:Title
%%score { ( 1 3 ) | ( 2 4 ) }
L:1/8
M:4/4
K:F
V:1 treble nm="Grand Piano"
V:3 treble 
V:2 bass 
V:4 bass 
V:1
 z4 z2[Q:1/4=108] F2 | A2 A2 A2 [EG]2 | F2 [Fd]2 c2 c2 | c2 A2 [B,EG]2 [A,F]2 |[M:3/4] [CEG]4 z2 | %5
[M:1/4] [A,F]2 |[M:4/4] [CFA]2 [CFA]2 [CFA]2 [B,EG]2 | [A,F]2 [Fd]2 [Fc]2 [Fc]2 | %8
 [Fd]2 cA [CEG]2 [B,EG]2 |[M:3/4] [A,F]4 z2 |[M:1/4] [A,F]2 | %11
[M:4/4] [CFA]3 [EG] [A,F]2 [CFA][CGB] | [Ac]3 B A2 c2 | f2 ed c2 [Ac][FA] | [EG]4 z2 F2 | %15
 A3 G F2 A2 |[M:9/8] B2 c- c [Fd]2- [Fd] [Fd]2 |[M:4/4] [Fc]3 [FA] [EG]2 [EG]2 |[M:3/4] F4 z2 |] %19
V:2
 z4 z2 [F,A,]2 | [F,CF]2 [F,CF]2 [F,CF]2 [C,B,]2 | [D,A,]2 [B,,B,]2 [F,A,F]2 [F,A,F]2 | %3
 [F,A,F]2 [F,CF]2 C,2 D,2 |[M:3/4] C,4 z2 |[M:1/4] F,2 |[M:4/4] F,2 F,2 F,2 C,2 | %7
 D,2 [B,,B,]2 [F,A,]2 [F,A,]2 | [B,,B,]2 A,C C,2 C,2 |[M:3/4] F,4 z2 |[M:1/4] F,2 | %11
[M:4/4] z2 z B, F,2 F,F, | z2 z[K:treble] G [F,CF]2[K:bass] [F,A,F]2 | %13
 [B,,DF]2 [B,,C][D,B,] [F,A,F]2 [F,C][F,C] | [C,C]4 z2 [F,A,]2 | [CF]3 [B,E] [F,A,]2 [F,CF]2 | %16
[M:9/8] [D,B,]2 [C,A,]- [C,A,] [B,,B,]2- [B,,B,] [B,,B,]2 |[M:4/4] [C,A,]3 [C,C] [C,C]2 [C,B,]2 | %18
[M:3/4] [F,A,]4 z2 |] %19
V:3
 x8 | x8 | x8 | x8 |[M:3/4] x6 |[M:1/4] x2 |[M:4/4] x8 | x8 | z2 F2 z4 |[M:3/4] x6 |[M:1/4] x2 | %11
[M:4/4] x8 | C4 z4 | z2 F2 z4 | x8 | x8 |[M:9/8] .F6 z3 |[M:4/4] x8 |[M:3/4] x6 |] %19
V:4
 x8 | x8 | x8 | x8 |[M:3/4] x6 |[M:1/4] x2 |[M:4/4] x8 | x8 | z2 C,2 z4 |[M:3/4] x6 |[M:1/4] x2 | %11
[M:4/4] F,4 z4 | F,4[K:treble] z4[K:bass] | x8 | x8 | F,4 z4 |[M:9/8] x9 |[M:4/4] x8 |[M:3/4] x6 |] %19

